X: 7660
T:Polska fr Blekinge
R:Polska
O:Sweden
M:3/4
L:1/16
K:D
A2|\
d3f/d/ A2A2 BAAA|d3f/d/ A2A2 B2AA|\
f2ef gage f2d2|efed cdec A4|
d3f/d/ A2A2 BAAA|d3f/d/ A2A2 B2AA|\
f2ef gage f2d2|efec d6::
A2|\
f3g a2af a2af|b2bg abaf g2e2|\
f3g a2af a2af|b2g2 a2f2 g2e2|
d3f/d/ A2A2 BAAA|d3f/d/ A2A2 B2AA|\
f2ef gage f2d2|efec d6::
K:G
D2|\
G2DG B2GB d2Bd|gfed c4 B3c|\
"tr"B2AB cdcA B2G2|ABAF G2GD B,G,B,D|
G2DG B2GB d2Bd|gfed c4 B3c|\
"tr"B2AB c2"tr"B2 A2G2|(3FGFEF G6::
(D2|D3)D/E/ D2D2 BG| [E4C4] [E4B,4] [E4C4]|\
[E3^C3]E/F/ E2E2 A2G2| F4 ~FED^C D4|
G2DG B2GB d2Bd|gfed c4 B3c|\
"tr"B2AB c2"tr"B2 A2G2| FGAF G4:|
